X:33
T:score126
L:1/4
Q:1/4=96
M:3/4
I:linebreak $
K:G
 B/>c/ B G | B/>c/ B G | B/>c/ B e | d2 c/ z/ |$ A/>B/ A B | d2 c | A/>B/ A c | B2 G |] %8
